packages/kaspersky-hexa-ui-icons/src/iconsSVGs/24/Tutorial.svg

<svg width="24" height="24" viewBox="0 0 24 24" fill="none" xmlns="http://www.w3.org/2000/svg">
<path fill-rule="evenodd" clip-rule="evenodd" d="M11.5431 2.60073C11.8299 2.4534 12.1701 2.4534 12.4569 2.60073L22.0737 7.54076C22.1341 7.57031 22.191 7.60576 22.2438 7.64637C22.3037 7.69241 22.3578 7.74478 22.4053 7.80225C22.5485 7.97526 22.6345 8.19728 22.6345 8.43939V13.3335C22.6345 13.8858 22.1868 14.3335 21.6345 14.3335C21.0822 14.3335 20.6345 13.8858 20.6345 13.3335V10.0773L19.1719 10.8286V17.5597C19.1719 17.9448 18.9507 18.2958 18.6032 18.4619L12.4313 21.4122C12.1586 21.5426 11.8415 21.5426 11.5687 21.4122L5.39684 18.4619C5.04934 18.2958 4.82812 17.9448 4.82812 17.5597V10.8286L1.90855 9.32886C1.57512 9.15758 1.36548 8.81421 1.36548 8.43936C1.36548 8.0645 1.57512 7.72113 1.90855 7.54985L11.5431 2.60073ZM12.4569 14.278L17.1719 11.856V16.9293L12 19.4016L6.82812 16.9293V11.856L11.5431 14.278C11.8299 14.4253 12.1701 14.4253 12.4569 14.278ZM4.55401 8.43936L12 12.2643L19.446 8.43936L12 4.61446L4.55401 8.43936Z" fill="black"/>
</svg>

<svg xmlns="http://www.w3.org/2000/svg" width="24" height="24" fill="none" viewBox="0 0 24 24"><path fill="#000" fill-rule="evenodd" d="M11.5431 2.6006a1 1 0 0 1 .9138 0l9.6168 4.94a1 1 0 0 1 .3316.2615.996.996 0 0 1 .2292.6372v4.8941c0 .5523-.4477 1-1 1s-1-.4477-1-1v-3.2563l-1.4626.7514v6.731c0 .3852-.2212.7361-.5687.9023l-6.1719 2.9503a1 1 0 0 1-.8626 0l-6.1719-2.9503a1 1 0 0 1-.5687-.9023v-6.731L1.9086 9.3287a1 1 0 0 1 0-1.779zm.9138 11.6773 4.715-2.4221v5.0734L12 19.4015l-5.1719-2.4723v-5.0733l4.715 2.422a1 1 0 0 0 .9138 0M4.554 8.4392 12 12.2641l7.446-3.8249L12 4.6143z"/></svg>
